src/assets/filled/Map1.svg

<?xml version="1.0" encoding="UTF-8"?>
<svg width="24" height="24" viewBox="0 0 24 24" xmlns="http://www.w3.org/2000/svg">
 <path d="m7.63 3.5702c0.17938-0.09785 0.37 0.05268 0.37 0.25701v13.556c0 0.2233-0.15242 0.412-0.3498 0.5163-0.00677 0.0036-0.01351 0.0072-0.0202 0.0109l-2.35 1.34c-1.64 0.94-2.99 0.16-2.99-1.74v-9.73c0-0.63 0.45-1.41 1.01-1.73l4.33-2.48z"/>
 <path d="m14.722 6.1024c0.1703 0.08435 0.2781 0.25799 0.2781 0.44806v13.153c0 0.3685-0.385 0.6104-0.717 0.4505l-4.25-2.0476c-0.17302-0.0834-0.283-0.2584-0.283-0.4505v-13.21c0-0.37085 0.3896-0.61265 0.7219-0.44806l4.25 2.1048z"/>
 <path d="m22 6.4901v9.73c0 0.63-0.45 1.41-1.01 1.73l-3.4914 2.0009c-0.3333 0.1911-0.7486-0.0496-0.7486-0.4338v-13.187c0-0.17951 0.0962-0.34525 0.2521-0.43423l2.0079-1.1461c1.64-0.94 2.99-0.16 2.99 1.74z"/>
</svg>

<svg width="24" height="24" viewBox="0 0 24 24"  xmlns="http://www.w3.org/2000/svg">
<path d="M7.63004 3.57018C7.80942 3.47233 8.00004 3.62286 8.00004 3.82719V17.383C8.00004 17.6063 7.84762 17.795 7.65024 17.8993C7.64347 17.9029 7.63673 17.9065 7.63004 17.9102L5.28004 19.2502C3.64004 20.1902 2.29004 19.4102 2.29004 17.5102V7.78018C2.29004 7.15018 2.74004 6.37018 3.30004 6.05018L7.63004 3.57018Z" />
<path d="M14.7219 6.10241C14.8922 6.18676 15 6.3604 15 6.55047V19.7036C15 20.0721 14.615 20.314 14.283 20.1541L10.033 18.1065C9.85998 18.0231 9.75 17.8481 9.75 17.656V4.44571C9.75 4.07486 10.1396 3.83306 10.4719 3.99765L14.7219 6.10241Z" />
<path d="M22 6.49006V16.2201C22 16.8501 21.55 17.6301 20.99 17.9501L17.4986 19.951C17.1653 20.1421 16.75 19.9014 16.75 19.5172V6.33038C16.75 6.15087 16.8462 5.98513 17.0021 5.89615L19.01 4.75006C20.65 3.81006 22 4.59006 22 6.49006Z" />
</svg>
